X: 11
T: K\"aki
O: Trad Finland
Z: John Chambers <jc@trillian.mit.edu>
M: 2/4
L: 1/16
K: Am
|: "Am"cBAB cBAc |  "C"e2ee e2dc | "E7"B2Bc d2ed | "Am"c2A2 A4 :|
|:  "C"e2ce g2fe | "G7"d2de f2ed | "E7"B2Bc d2ed | "Am"c2A2 A4 :|
%%sep 1 1 10cm
